X: 2185
T: Polonäs efter John Johansson
B: [[Notböcker/John Johanssons noter]] [[http://www.sormlandsmusikarkiv.se/noter/johansson_john/john_johansson.html|samling 2]], nr 60 (sida 19)
O: Södermanland
R: Polonäs
Z: Nils
M: 3/4
L: 1/16
K: Dm
a4 f4 g2a2 | b2b2 a2a2 g4 | a4 f4 g2g2 | b2a2 f2e2 d2c2 |
a4 f4 g2a2 | b2b2 a2a2 g4 | g4 b2a2 g2f2 | efga g4 [fA]2z2 ::
A2c2 c2c2 dcBA | B2B2 B2B2 cBAB | A2A2 B2A2 G2F2 | F2EF GFED C4 |
A2c2 c2c2 dcBA | B2B2 B2B2 cBAB | A2c2 c2f2 f2a2 | agfe g4 [fA]2z2 :|
(:musicend:)
(:music:)
